X:81
T:81 Poor Soldier
C:Welch MS
I:abc2nwc
M:6/8
L:1/8
K:D
d/2e/2|fdB AGF|Eee e2d/2e/2|fdB AFA|Add d2d/2e/2|
fdB AGF|Eee e2d/2e/2|fdB AFA|Add d2:|
f/2e/2|dfa dfa|dfa a2f/2e/2|dfa dfa|
gee e2f/2e/2|dfa dfa|dfa a2g|fdB AFA|Add d2:|


